X:1
T:Lord in thy wrath
T:Domine ne. Psal.38.
T:William Byrd (c.1540-1623)
T:Lord in thy wrath Domine ne. Psal.38.
T:© Choral Public Domain Library 2010
T:© Choral Public Domain Library 2010
T:© Choral Public Domain Library 2010
C:William Byrd (c.1540-1623)
Z:© Choral Public Domain Library 2010
%%score [ 1 2 3 ]
L:1/8
M:4/4
K:F
V:1 treble nm="Alto" snm="S."
V:2 treble-8 transpose=-12 nm="Tenor" snm="T."
V:3 treble-8 transpose=-12 nm="Tenor" snm="T."
V:1
 [Cd]2 |[M:4/2] A16 | A8 A8 | c8 c4 d4- | d2 c2 B2 A2 B4 B4 | A8 z8 | F4 G6 F2 E2 D2 | E4 E4 D8 | %8
w: |Lord|in thy|wrath cor- rect|_ _ _ _ _ me|not,|cor- rect _ _ _|_ me not,|
 z4 B4 F4 G4 | A6 G2 A2 c2 =B4 | c8 z4 c4 | F4 G4 A6 G2 | A2 c2 B4 A8 | z4 G4 B8 | A8 G8 | %15
w: nor in thy|fu- * * * ry|vex, nor|in thy fu- ry|_ _ _ vex,|give tears,|give grace,|
 z4 E8 A4- | A4 G4 E4 G4 | c12 B4 | A8 z4 G4 | A4 F4 B4 G4 | ^F16- | F8 z4 A4 | A4 A4 d8- | %23
w: give pe-|* ni- tence, give|pe- ni-|tence un-|to my sin- ful|sex,|_ for|that the ar-|
 d4 A4 c4 F2 G2 | A4 A8 G4 | A8 z4 B4- | B4 A8 G4 | A4 F4 E8 | z4 F8 A4- | A4 =B4 c8 | %30
w: * rows of thy _|wrath, of thy|wrath are|_ fix- ed|in my heart,|and thou|_ hast laid|
 A4 D6 F2 E4 | F4 C4 F3 G A4- | A2 G2 F6 ED E4 | F8 z4 F4 | B4 c4 d8 | G4 c6 =BA B4 | c8 z4 A4 | %37
w: thine hand on _|me, and thou hast laid|_ thine hand on _ _|me, and|thou hast laid|thine hand on _ _|me for|
 G4 F4 B6 A2 | G2 F2 G8 ^F4 | G8 z4 B4- | B4 A4 G4 d4- | d2 c2 B2 A2 c4 F4- | F2 G2 A2 B2 c6 B2 | %43
w: my most just de-||sert, for|_ my most just|_ de- * * sert, just|_ de- * * * *|
 A2 G2 A6 G2 F2 E2 | F4 G8 ^F4 | !fermata!G16 |] %46
w: ||sert.|
V:2
 [Gb]2 |[M:4/2] z4 d8 f4- | f2 e2 d2 c2 d2 e2 f2 g2 | a8 f8 | d12 g4 | f4 d4 e4 f4 | d8 G4 d4- | %7
w: |Lord in|_ thy _ _ _ _ _ _|wrath, Lord|in thy|wrath cor- rect me|not, cor- rect|
 d4 ^c4 d8- | d8 z8 | z4 f4 c4 d4 | e6 d2 e2 g2 f4- | f4 e4 f4 c4 | f8 z4 c4 | _e8 d8 | c8 z4 c4- | %15
w: _ me not,|_|nor in thy|fu- ry _ _ _|_ _ vex, give|tears, give|tears, give|grace, give|
 c4 g8 f4 | e8 z4 d4 | e4 c4 f4 d4 | c4 f8 e4- | e2 d2 d6 G2 B4 | A8 z4 A4 | A4 A4 f8- | %22
w: _ pe- ni-|tence un-|to my sin- ful|sex, un- to|_ my sin- ful _|sex, for|that the ar-|
 f4 d4 f4 g4 | d4 f8 d4- | d4 c4 d4 B4 | A8 G4 G4 | d4 f8 e4- | e2 d2 d8 ^c4 | d16 | z8 z4 c4- | %30
w: * rows of thy|wrath are fix-|* ed in my|heart, in my|heart, are fix-|* ed in my|heart,|and|
 c4 f8 g4 | a8 d4 f4- | f2 e2 d4 g8 | z4 f4 b8 | d4 f8 d4 | e6 dc d8 | c8 d8 | d8 z4 d4 | %38
w: _ thou hast|laid thine hand|_ on _ me,|and thou|hast laid thine|hand on _ _|me, on|me for|
 B4 G4 B4 A4 | G6 d2 e2 f2 g4 | f8 z8 | f8 e4 d4 | a6 g2 f2 e2 f4- | f2 e2 d2 c2 d6 c2 | %44
w: my most just de-|sert, de- * * *|sert,|for my most|just de- * * *||
 B2 A2 B4 A8 | !fermata!=B16 |] %46
w: |sert.|
V:3
 [Cd]2 |[M:4/2] z16 | z16 | z4 A8 B4- | B2 A2 G2 F2 G2 A2 B2 c2 | d8 c4 d4- | d2 c2 B2 A2 B4 B4 | %7
w: |||Lord in|_ thy _ _ _ _ _ _|wrath cor- rect|_ _ _ _ _ me|
 A8 z4 B4 | F4 G4 D4 E4 | F8 z4 G4 | C4 c4 G4 A4 | B2 d2 c4 F8 | z4 D4 F8 | z8 z4 D4 | F8 E8 | %15
w: not, nor|in thy fu- ry|vex, nor|in, nor in thy|fu- * ry vex,|give tears,|give|tears, give|
 C8 z4 F4 | c12 B4 | A8 z4 G4 | A4 F4 B4 G4 | F4 D4 G6 G2 | D16 | z4 D4 D4 D4 | d12 G4 | %23
w: grace, give|pe- ni-|tence un-|to my sin- ful|sex, my sin- ful|sex,|for that the|ar- rows|
 B4 F2 G2 A4 B4 | F8 z4 G4- | G4 F8 E4 | F6 D2 C8 | F4 D4 A8 | z8 D8 | F4 G4 A8 | F6 B4 A2 G4 | %31
w: of thy _ wrath, thy|wrath, are|_ fix- ed|in my heart,|in my heart,|and|thou hast laid|thine hand on _|
 F8 z4 F4- | F4 B8 c4 | d8 G4 B4- | B2 AG A4 B8 | c8 G8 | z4 A4 G4 F4 | B6 A2 G2 F2 G4- | %38
w: me, and|_ thou hast|laid thine hand|_ on _ _ me,|on me|for my most|just de- * * *|
 G4 E4 D8 | z4 B4 A4 G4 | d6 c2 B2 A2 B4 | A4 D4 A4 B4 | F6 G2 A6 G2 | F4 F4 D8- | D8 D8 | %45
w: * * sert,|for my most|just de- * * *|sert, for my most|just de- * *|sert, most just|_ de-|
 !fermata!G16 |] %46
w: sert.|

